X: 2
T: La Bastringue
R: reel
M: 4/4
L: 1/8
K: Dmaj
|: f2 ff f2 gf | e2 c2 d4 | c2 d2 e2 c2 | dcde f2 d2 |
f2 ff f2 gf | e2 c2 d4 |g2 f2 efed | B2 c2 d4 :|
|: d2 fd adfd | =c2 ec gcec | d2 fd adfa | bgec dcBA |
d2 fd ad f2 | =c2 ec gc e2 | d2 fd ad f/g/a |[1 bgec d2 A/B/c :|[2 bgec d4 |]


Tune 3052	Setting 26084

